src/assets/icons/user-edit.svg

<svg width="14" height="14" viewBox="0 0 14 14" fill="none" xmlns="http://www.w3.org/2000/svg">
<g id="user-edit">
<g clip-path="url(#clip0_156_4699)">
<path id="Vector" fill-rule="evenodd" clip-rule="evenodd" d="M5.90631 2.32823C4.95928 2.32823 4.19156 3.09595 4.19156 4.04298C4.19156 4.99001 4.95928 5.75773 5.90631 5.75773C6.85334 5.75773 7.62106 4.99001 7.62106 4.04298C7.62106 3.09595 6.85334 2.32823 5.90631 2.32823ZM3.04839 4.04298C3.04839 2.46459 4.32792 1.18506 5.90631 1.18506C7.4847 1.18506 8.76423 2.46459 8.76423 4.04298C8.76423 5.62137 7.4847 6.9009 5.90631 6.9009C4.32792 6.9009 3.04839 5.62137 3.04839 4.04298ZM1.45599 10.4345C1.26483 10.7293 1.14311 11.1222 1.14311 11.6641C1.14311 11.9798 0.887201 12.2357 0.571523 12.2357C0.255846 12.2357 -6.10352e-05 11.9798 -6.10352e-05 11.6641C-6.10352e-05 10.9447 0.164007 10.3259 0.496803 9.8126C0.828999 9.30027 1.30236 8.93468 1.85304 8.67641C2.92896 8.17181 4.37411 8.04407 5.90631 8.04407C6.41326 8.04407 6.90612 8.05966 7.37711 8.09106C7.69209 8.11206 7.9304 8.38442 7.9094 8.6994C7.88841 9.01438 7.61604 9.2527 7.30106 9.2317C6.85751 9.20213 6.39011 9.18724 5.90631 9.18724C4.39007 9.18724 3.16782 9.32243 2.33845 9.71141C1.9365 9.89993 1.64775 10.1388 1.45599 10.4345ZM12.2397 6.97737C12.275 6.94206 12.3584 6.89932 12.4837 6.90174C12.6086 6.90416 12.7012 6.95053 12.7453 6.99564C12.8042 7.05584 12.8513 7.15941 12.8564 7.27533C12.8614 7.39017 12.8243 7.45952 12.7925 7.49058L12.7925 7.49055L12.7879 7.4951L8.72699 11.5561L8.12944 11.6115L8.17447 11.035L12.1805 7.02896C12.2013 7.01323 12.2211 6.99601 12.2397 6.97737ZM13.5627 6.19643C13.2715 5.8986 12.8725 5.76588 12.5058 5.75879C12.167 5.75223 11.7924 5.85211 11.5006 6.10458C11.4733 6.12364 11.4476 6.14517 11.4237 6.16903L7.21689 10.3759C7.12058 10.4722 7.06182 10.5998 7.05122 10.7356L6.9369 12.1988C6.92378 12.3668 6.98548 12.5321 7.10553 12.6504C7.22558 12.7687 7.39173 12.828 7.55956 12.8125L9.03806 12.6753C9.17084 12.663 9.29513 12.6046 9.38943 12.5103L13.5943 8.30538C13.9035 8.00137 14.0144 7.59187 13.9985 7.22569C13.9825 6.85957 13.8392 6.47918 13.5627 6.19643Z" fill="black"/>
</g>
</g>
<defs>
<clipPath id="clip0_156_4699">
<rect width="14" height="14" fill="white"/>
</clipPath>
</defs>
</svg>

<svg xmlns="http://www.w3.org/2000/svg" fill="none" viewBox="0 0 14 14"><g clip-path="url(#a)"><path fill="#000" fill-rule="evenodd" d="M5.906 2.328a1.715 1.715 0 1 0 0 3.43 1.715 1.715 0 0 0 0-3.43M3.048 4.043a2.858 2.858 0 1 1 5.716 0 2.858 2.858 0 0 1-5.716 0m-1.592 6.392c-.191.294-.313.687-.313 1.23a.572.572 0 1 1-1.143 0c0-.72.164-1.34.497-1.852.332-.513.805-.878 1.356-1.137 1.076-.504 2.521-.632 4.053-.632q.762 0 1.471.047a.572.572 0 1 1-.076 1.14q-.666-.044-1.395-.044c-1.516 0-2.738.135-3.568.524-.401.189-.69.428-.882.723M12.24 6.977c.035-.035.118-.078.244-.075a.38.38 0 0 1 .261.094c.06.06.106.163.111.28.005.114-.032.184-.063.215l-.005.004-4.061 4.061-.598.056.045-.577 4.007-4.006a1 1 0 0 0 .059-.052m1.323-.78a1.52 1.52 0 0 0-1.057-.438 1.5 1.5 0 0 0-1.005.346 1 1 0 0 0-.077.064l-4.207 4.207a.57.57 0 0 0-.166.36l-.114 1.463a.572.572 0 0 0 .623.614l1.478-.138a.57.57 0 0 0 .351-.165l4.205-4.205c.31-.304.42-.713.405-1.08a1.58 1.58 0 0 0-.436-1.029" clip-rule="evenodd"/></g><defs><clipPath id="a"><path fill="#fff" d="M0 0h14v14H0z"/></clipPath></defs></svg>
